!!!OTL: HAETT ICH DEN ZOLL AM RHEIN
!!!ARE: Europa, Mitteleuropa, Deutschland
!!!SCT: E1088
!!!YEM: Copyright 1995, estate of Helmut Schaffrath.
**kern
*ICvox
*Ivox
*M4/4
*k[f#]
*G:
{4b
=1
4a
4b
4dd
4b
=2
2a
4r}
{4b
=3
4a
4b
4dd
4cc
=4
2a
4r}
{4a
=5
4b
4a
4b
4cc
=6
2dd
4dd}
{4cc
=7
4b
4b
4a
4a
=8
4b}
{4g
2dd
=9
4r
4g
2dd
=10
4r
4g
4dd}
==
!!!AGN: Wunsch - Lied, Trink - Lied
!!!ONB: ESAC (Essen Associative Code) Database: ERK3
!!!AMT: simple quadruple
!!!AIN: vox
!!!EED: Helmut Schaffrath
!!!EEV: 1.0
*-
